src/_assets/sidebar/treasury-icon.svg

<svg width="24" height="24" viewBox="0 0 24 24" fill="none" xmlns="http://www.w3.org/2000/svg">
<path d="M5.98795 4.5H18.0121C18.1452 4.49998 18.2764 4.53146 18.395 4.59187C18.5136 4.65227 18.6162 4.73988 18.6945 4.84755L21.9194 9.2813C21.9768 9.36019 22.005 9.45651 21.9993 9.55386C21.9936 9.65122 21.9543 9.7436 21.8882 9.81527L12.3096 20.1919C12.2337 20.2739 12.1284 20.3225 12.0167 20.3269C11.905 20.3313 11.7962 20.2913 11.714 20.2155C11.7081 20.2105 8.50851 16.7443 2.11179 9.81527C2.04566 9.7436 2.00641 9.65122 2.00072 9.55386C1.99503 9.45651 2.02325 9.36019 2.08058 9.2813L5.30551 4.84755C5.38378 4.73988 5.48641 4.65227 5.60502 4.59187C5.72363 4.53146 5.85485 4.49998 5.98795 4.5ZM6.41817 6.18712L4.0562 9.43482L12 18.0391L19.9438 9.43482L17.5818 6.18712H6.41817Z" fill="#485F7D"/>
</svg>

<svg xmlns="http://www.w3.org/2000/svg" width="24" height="24" fill="none"><path fill="#485F7D" d="M5.988 4.5h12.024a.84.84 0 0 1 .683.348l3.224 4.433a.42.42 0 0 1-.03.534l-9.58 10.377a.42.42 0 0 1-.595.023q-.008-.006-9.602-10.4a.42.42 0 0 1-.031-.534l3.225-4.433a.84.84 0 0 1 .682-.348m.43 1.687L4.056 9.435 12 18.039l7.944-8.604-2.362-3.248z"/></svg>
